images/icons/logo.svg

<svg width="70" height="30" viewBox="0 0 70 30" fill="none" xmlns="http://www.w3.org/2000/svg">
<path d="M31.9167 0.248274C29.3333 0.786205 28.2083 4.2 29.8333 6.47586C30.6875 7.67586 32.9583 8.23448 34.5208 7.63448C36.3958 6.93103 37.375 4.46896 36.5625 2.52414C35.75 0.641377 34.0625 -0.186209 31.9167 0.248274Z" fill="#5326D4"/>
<path d="M4.27083 0.620689C1.97917 0.703449 0.0833333 0.786207 0.0625 0.806896C0.0208333 0.806896 0 1.36552 0 2.04828V3.24828L1.16667 3.37241C2.625 3.51724 3.25 3.93104 3.52083 4.90345C3.66667 5.4 3.75 9.22759 3.75 15.1655C3.75 26.6276 3.83333 26.2552 1.27083 26.731L0 26.9793V28.2V29.4207L9.75 29.3172C17.9167 29.2552 19.6875 29.1724 20.7917 28.9035C23.5417 28.1793 25.4375 26.8138 26.3958 24.869C26.9167 23.8345 26.9792 23.4621 26.9792 21.8276C26.9583 18.1862 25.25 16.0759 21.2708 14.6897C19.5208 14.0897 19.0625 13.8621 19.6042 13.8621C20.3958 13.8621 23.2708 12.2069 24.1875 11.2345C25.3542 10.0138 25.7083 9.04138 25.6875 7.2C25.6875 4.88276 24.4583 2.95862 22.3333 1.88276C19.6667 0.537931 15.5833 0.248276 4.27083 0.620689ZM14.9792 3.53793C16.5417 4.13793 17.2708 5.6069 17.2917 8.06897C17.2917 11.2759 16.1875 12.4966 13.0417 12.7448L11.4583 12.8897V7.96552V3.04138L12.9375 3.18621C13.75 3.26897 14.6667 3.43448 14.9792 3.53793ZM16.0625 15.9931C16.9375 16.3448 17.7917 17.2966 18.1667 18.3517C18.5833 19.5517 18.5208 23.0483 18.0625 24.2483C17.3958 25.9655 15.75 26.8759 13.8958 26.6069C12.6875 26.4207 11.9375 25.8414 11.6667 24.869C11.5625 24.4552 11.4583 22.1586 11.4583 19.7793V15.4552L13.3958 15.5793C14.4583 15.6414 15.6667 15.8276 16.0625 15.9931Z" fill="#5326D4"/>
<path d="M44.3125 6.35172C44.2292 6.41379 44.1667 6.62069 44.1667 6.80689C44.1667 7.44827 43.1667 9.26896 42.3959 10.0345C41.4167 10.9862 39.8542 11.731 38.3959 11.9172L37.2917 12.0414V13.2621V14.4828H38.5417H39.7917V20.2345C39.7917 26.9379 39.875 27.4345 41.375 28.7379C42.5834 29.7931 43.8125 30.0828 46.4375 29.9379C49.2709 29.7931 50.9792 28.9655 52.0834 27.1862L52.5417 26.4621L53.5417 27.3931C55.4375 29.1517 57.8334 30 60.9375 30C63.0625 30 64.5209 29.669 66.1875 28.8207C67.3959 28.2207 69.375 26.5448 69.375 26.1103C69.375 25.9655 68.9375 25.5931 68.3959 25.2621L67.4167 24.6414L66.4167 25.5724C65.1667 26.731 64.1667 27.1655 62.7084 27.1655C60.1042 27.1655 58.6459 25.4069 58.2292 21.6621L58.1042 20.4828H64.0417H70V19.6552C70 18.331 69.5834 16.7379 68.8959 15.4552C65.8334 9.68276 55.2709 9.86896 51.8125 15.7448C50.4792 18 50.25 21.7862 51.2917 24.3517L51.8125 25.6138L51.3125 25.4276C50.5417 25.1379 50.3125 25.2 50 25.7379C49.6459 26.4207 48.5209 26.9793 47.875 26.8345C46.9584 26.6069 46.875 26.0276 46.875 20.069V14.4828H49.4792H52.0834V13.2414V12H49.4792H46.875V9.10345V6.20689H45.6667C45 6.20689 44.375 6.26896 44.3125 6.35172ZM62.0625 14.3793C62.7292 14.9379 63.0209 15.6621 63.25 17.2138L63.375 18.2069H60.7292H58.0834L58.2292 17.1103C58.4375 15.7034 58.8959 14.5448 59.4375 14.1724C60.1459 13.6759 61.3334 13.7793 62.0625 14.3793Z" fill="#5326D4"/>
<path d="M31.1459 12.0207C28.5209 12.4552 26.2917 12.8069 26.2084 12.8069C26.1042 12.8276 26.0417 13.3862 26.0417 14.069V15.3103H26.8542C29.125 15.3103 29.375 15.869 29.375 21.1034C29.375 26.3379 29.125 26.8966 26.8542 26.8966H26.0417V28.1379V29.3793H32.7084H39.375V28.1379V26.8966H38.6459C37.6875 26.8966 36.9792 26.5448 36.6875 25.9241C36.5417 25.5931 36.4584 23.0897 36.4584 18.3103C36.4584 12.7241 36.3959 11.1724 36.2084 11.1931C36.0625 11.2138 33.7917 11.5862 31.1459 12.0207Z" fill="#5326D4"/>
</svg>

<svg width="70" height="30" fill="none" xmlns="http://www.w3.org/2000/svg"><path d="M31.917.248c-2.584.538-3.709 3.952-2.084 6.228.855 1.2 3.125 1.758 4.688 1.158 1.875-.703 2.854-3.165 2.041-5.11-.812-1.883-2.5-2.71-4.645-2.276zM4.27.62C1.98.704.084.787.064.808.02.807 0 1.366 0 2.048v1.2l1.167.124c1.458.145 2.083.559 2.354 1.531.146.497.229 4.325.229 10.262 0 11.463.083 11.09-2.48 11.566L0 26.979v2.441l9.75-.103c8.167-.062 9.938-.145 11.042-.413 2.75-.725 4.645-2.09 5.604-4.035.52-1.035.583-1.407.583-3.041-.02-3.642-1.729-5.752-5.708-7.138-1.75-.6-2.209-.828-1.667-.828.792 0 3.667-1.655 4.584-2.627 1.166-1.221 1.52-2.194 1.5-4.035 0-2.317-1.23-4.241-3.355-5.317C19.667.538 15.583.248 4.271.62zm10.71 2.918c1.562.6 2.29 2.069 2.312 4.531 0 3.207-1.105 4.428-4.25 4.676l-1.584.145V3.04l1.48.145c.812.083 1.729.248 2.041.352zm1.082 12.455c.875.352 1.73 1.304 2.105 2.359.416 1.2.354 4.696-.105 5.896-.666 1.717-2.312 2.628-4.166 2.359-1.209-.186-1.959-.766-2.23-1.738-.104-.414-.208-2.71-.208-5.09v-4.324l1.938.124c1.062.062 2.27.249 2.666.414zm28.251-9.641c-.084.062-.146.269-.146.455 0 .641-1 2.462-1.771 3.227-.98.952-2.542 1.697-4 1.883l-1.104.124v2.441h2.5v5.753c0 6.703.083 7.2 1.583 8.503 1.208 1.055 2.438 1.345 5.063 1.2 2.833-.145 4.541-.973 5.645-2.752l.459-.724 1 .931C55.437 29.152 57.833 30 60.937 30c2.126 0 3.584-.331 5.25-1.18 1.209-.6 3.188-2.275 3.188-2.71 0-.145-.438-.517-.98-.848l-.978-.62-1 .93c-1.25 1.159-2.25 1.594-3.709 1.594-2.604 0-4.062-1.76-4.479-5.504l-.125-1.18H70v-.827c0-1.324-.417-2.917-1.104-4.2-3.063-5.772-13.625-5.586-17.084.29-1.333 2.255-1.562 6.041-.52 8.607l.52 1.262-.5-.186c-.77-.29-1-.228-1.312.31-.354.683-1.48 1.241-2.125 1.096-.917-.227-1-.806-1-6.765v-5.586h5.208V12h-5.208V6.207h-1.208c-.667 0-1.292.062-1.355.145zm17.75 8.027c.666.559.958 1.283 1.187 2.835l.125.993h-5.292l.146-1.097c.209-1.407.667-2.565 1.209-2.938.708-.496 1.895-.393 2.624.207z" fill="#5326D4"/><path d="M31.146 12.02c-2.625.435-4.854.787-4.938.787-.104.02-.166.58-.166 1.262v1.241h.812c2.271 0 2.521.559 2.521 5.793 0 5.235-.25 5.794-2.52 5.794h-.813v2.482h13.333v-2.482h-.73c-.958 0-1.666-.352-1.958-.973-.145-.33-.229-2.834-.229-7.614 0-5.586-.062-7.138-.25-7.117-.145.02-2.416.393-5.062.828z" fill="#5326D4"/></svg>
